images/ico-05.svg

<svg width="21" height="22" viewBox="0 0 21 22" fill="none" xmlns="http://www.w3.org/2000/svg">
<path d="M18.2143 5.85088H15V3.16923C15 1.42172 13.7503 0 12.2143 0H2.78571C1.24967 0 0 1.42172 0 3.16923V8.04496C0 9.71047 1.13511 11.08 2.57143 11.2049V16.1491L6 12.2485V13.8959C6 15.6434 7.24967 17.0651 8.78571 17.0651H14.0909L18.4286 22V17.0558C19.8649 16.9309 21 15.5613 21 13.8958V9.02011C21 7.2726 19.7503 5.85088 18.2143 5.85088ZM6 9.02011V10.1799L3.85714 12.6178V9.75147H2.78571C1.95861 9.75147 1.28571 8.98593 1.28571 8.04496V3.16923C1.28571 2.22826 1.95861 1.46272 2.78571 1.46272H12.2143C13.0414 1.46272 13.7143 2.22826 13.7143 3.16923V5.85088H8.78571C7.24967 5.85088 6 7.2726 6 9.02011ZM19.7143 13.8958C19.7143 14.8368 19.0414 15.6024 18.2143 15.6024H17.1429V18.4687L14.6234 15.6024H8.78571C7.95861 15.6024 7.28571 14.8368 7.28571 13.8958V9.02011C7.28571 8.07914 7.95861 7.3136 8.78571 7.3136H18.2143C19.0414 7.3136 19.7143 8.07914 19.7143 9.02011V13.8958Z" fill="black"/>
</svg>

<svg width="21" height="22" viewBox="0 0 21 22" fill="none" xmlns="http://www.w3.org/2000/svg"><path d="M18.214 5.85H15V3.17C15 1.421 13.75 0 12.214 0H2.786C1.25 0 0 1.422 0 3.17v4.875c0 1.665 1.135 3.035 2.571 3.16v4.944L6 12.25v1.647c0 1.747 1.25 3.17 2.786 3.17h5.305L18.429 22v-4.944C19.865 16.93 21 15.56 21 13.896V9.02c0-1.747-1.25-3.17-2.786-3.17zM6 9.02v1.16l-2.143 2.438V9.75H2.786c-.827 0-1.5-.765-1.5-1.706V3.169c0-.94.673-1.706 1.5-1.706h9.428c.827 0 1.5.765 1.5 1.706v2.682H8.786C7.25 5.85 6 7.273 6 9.02zm13.714 4.876c0 .94-.673 1.706-1.5 1.706h-1.071v2.867l-2.52-2.867H8.786c-.827 0-1.5-.765-1.5-1.706V9.02c0-.94.673-1.706 1.5-1.706h9.428c.827 0 1.5.765 1.5 1.706v4.876z" fill="#000"/></svg>
